X:1
T:Title
%%score { ( 1 3 ) | ( 2 4 ) }
L:1/8
Q:1/4=100
M:4/4
K:Eb
V:1 bass nm="Grand Piano"
V:3 bass 
V:2 bass 
V:4 bass 
V:1
 [G,B,E]2 [F,B,D]2[K:treble] [G,B,E]2 [B,EG]2 | z4 z2 .c2 | [EGe]2 [EGB]2 [B,EG]2 [G,B,E]2 | %3
w: J.~Lincoln~Hall * * *|||
 B4 A4 | [B,DF]2 [B,_D=E]2 [B,=DF]2 [B,EG]2 | [DFA]2 [DFB]2 [DFA]2 [FBd]2 | %6
w: |||
 [FBdf]2 [GBe]2 [FBd]2 [EF=Ac]2 | [DFB]6[K:bass] z2 | G4 _G4 | G6 z2 | B2 G2 [G,B,E]2 G2 | F4 D4 | %12
w: ||||||
 A4 G4 | A6 z2 | [DFB]2 [DFA]2 [B,DF]2 [FA]2 | G2- [GBeg]2 [GBe]2 B2 | G4 _G4 | G6 z2 | %18
w: ||||||
 B2 [B,EG]2 [B,_DF]2 [B,DE]2 | c6 z2 | e4 =A4 | e4 G4 | [DFc]2 [DFB]2 [DFc]2 [DFB]2 | E6 z2 |] %24
w: ||||||
V:2
 [E,,E,]2 [B,,,B,,]2 [E,,E,]2 [B,,,B,,]2 | [E,,E,]2 [B,,,B,,]2 [E,,E,]2 [B,,,B,,]2 | %2
 [E,,E,]2 [B,,,B,,]2 [E,,E,]2 [B,,,B,,]2 | [F,,F,]2 [B,,,B,,]2 [F,,F,]2 [B,,,B,,]2 | %4
 [F,,F,]2 [B,,,B,,]2 [F,,F,]2 [B,,,B,,]2 | [F,,F,]2 [B,,,B,,]2 [F,,F,]2 [B,,,B,,]2 | %6
 [D,,D,]2 [E,,E,]2 [F,,F,]2 [=A,,=A,]2 | [B,,B,]2 A,,2 G,,2 F,,2 | z2 B,2 z2 =A,2 | %9
 z2 B,2 z2 [EG]2 | z2 [B,E]2 z2 [B,E]2 | z2 [A,B,]2 z2 [F,A,]2 | z2 [=B,D]2 z2 [B,_D]2 | %13
 z2 [B,D]2 z2 [DF]2 | [F,,F,]4 z2 [B,D]2 | [E,,E,]4 z2 [EG]2 | z2 B,2 z2 =A,2 | z2 B,2 z2 [EG]2 | %18
 [E,,E,]2 [E,,E,]2 [F,,F,]2 [G,,G,]2 | [A,,A,]2 [A,,A,]2 [A,,A,]2 [A,,A,]2 | %20
 [=B,,=B,]2 [B,,B,]2 [B,,B,]2 [B,,B,]2 | [B,,B,]2 [B,,B,]2 [B,,B,]2 [B,,B,]2 | %22
 [B,,A,]2 [B,,A,]2 [B,,A,]2 [B,,A,]2 | [E,,E,]2 [A,,,A,,]2 [E,,,E,,]2 z2 |] %24
V:3
 x4[K:treble] x4 | [EGB]2 [EGc]2 [EGB]2 [EG]-[EGd] | x8 | [DF]2 [DF]2 [DF]2 [DF]2 | x8 | x8 | x8 | %7
 z2[K:bass] A,2 G,2 F,2 | z2 E2 z2 E2 | z2 E2 [B,E]2 Bc | x8 | z2 D2 z2 B,2 | z2 F2 z2 =E2 | %13
 z2 F2 [B,DF]2 Bc | x8 | [B,E]2 z2 z4 | z2 E2 z2 E2 | z2 E2 [B,E]2 Bc | x8 | %19
 [CEA]2 [CEA]2 [CEA]2 [CEA]2 | [E_G=A]2 [EGA]2 [EG]2 [EG]2 | [EGB]2 [EGB]2 E2 E2 | x8 | %23
 [G,B,]2 [A,C]2 [G,B,]2 z2 |] %24
V:4
 x8 | x8 | x8 | x8 | x8 | x8 | x8 | x8 | [E,,E,]4 [B,,,B,,]4 | [E,,E,]4 [G,,G,]4 | %10
 [E,,E,]4 [C,,B,,]4 | [F,,F,]4 [B,,,B,,]4 | [F,,F,]4 [B,,,B,,]4 | [F,,F,]4 [B,,,B,,]4 | %14
 z4 [B,,,B,,]4 | z4 [B,,,B,,]4 | [E,,E,]4 [B,,,B,,]4 | [E,,E,]4 [B,,,B,,]4 | x8 | x8 | x8 | x8 | %22
 x8 | x8 |] %24

